Obsidian/places/16s/folder-symbolic.svg

<svg height="16" width="16" xmlns="http://www.w3.org/2000/svg"><path d="m.875 2c-.533351 0-.7251867.3866433-.875.8574219v1.1425781h7.6l-1.8-2zm-.875 3v9.142578c.0000262.39668.456659.857422.875.857422h14.25c.384321 0 .931352-.454723.875-.857422v-8.285578c.0084-.490991-.479493-.8275171-.875-.857z" fill="#bebebe"/></svg>

<?xml version="1.0" encoding="UTF-8" standalone="no"?>
<!-- Created with Inkscape (http://www.inkscape.org/) -->

<svg
   xmlns:dc="http://purl.org/dc/elements/1.1/"
   xmlns:cc="http://creativecommons.org/ns#"
   xmlns:rdf="http://www.w3.org/1999/02/22-rdf-syntax-ns#"
   xmlns:svg="http://www.w3.org/2000/svg"
   xmlns="http://www.w3.org/2000/svg"
   xmlns:sodipodi="http://sodipodi.sourceforge.net/DTD/sodipodi-0.dtd"
   xmlns:inkscape="http://www.inkscape.org/namespaces/inkscape"
   id="svg7384"
   height="16"
   width="16"
   version="1.1"
   inkscape:version="0.92.4 (unknown)"
   sodipodi:docname="folder-symbolic.svg">
  <defs
     id="defs10" />
  <sodipodi:namedview
     pagecolor="#ffffff"
     bordercolor="#666666"
     borderopacity="1"
     objecttolerance="10"
     gridtolerance="10"
     guidetolerance="10"
     inkscape:pageopacity="0"
     inkscape:pageshadow="2"
     inkscape:window-width="1920"
     inkscape:window-height="1010"
     id="namedview8"
     showgrid="false"
     inkscape:zoom="51.991731"
     inkscape:cx="8.2737074"
     inkscape:cy="8.2859062"
     inkscape:window-x="0"
     inkscape:window-y="32"
     inkscape:window-maximized="1"
     inkscape:current-layer="svg7384"
     showguides="false" />
  <metadata
     id="metadata90">
    <rdf:RDF>
      <cc:Work
         rdf:about="">
        <dc:format>image/svg+xml</dc:format>
        <dc:type
           rdf:resource="http://purl.org/dc/dcmitype/StillImage" />
        <dc:title>Gnome Symbolic Icon Theme</dc:title>
      </cc:Work>
    </rdf:RDF>
  </metadata>
  <title
     id="title9167">Gnome Symbolic Icon Theme</title>
  <path
     style="fill:#bebebe;fill-opacity:1"
     d="M 0.875,2 C 0.341649,2 0.1498133,2.3866433 0,2.8574219 V 4 H 7.6 L 5.8,2 Z M 0,5 v 9.142578 C 2.62e-5,14.539258 0.456659,15 0.875,15 h 14.25 C 15.509321,15 16.056352,14.545277 16,14.142578 V 5.857 C 16.0084,5.366009 15.520507,5.0294829 15.125,5 Z"
     id="rect3845-3-6-7"
     inkscape:connector-curvature="0"
     sodipodi:nodetypes="sccccsccsscccc" />
</svg>
